X: 4
T:Rheged
M:3/4
L:1/8
Q:160
C:Trad
S:Blodau'r Grug Collection Vol. 1
R:Waltz
A:Wales
Z:brian_martin12345@yahoo.com
K:D
A2|d4A2|B2c2d2|ef gf ed|c3BA2|d4A2|B2c2df|e2d2c2|d4:||!
e2|f3ga2|b2a2f2|g3f eg|f2efd2|f3ga2|b2a2g2|f2a2^g2|a6|!
f3ga2|b2a2g2|g3f ed|c3BA2|d4A2|B2c2df|e2d2c2|d4||
